X: 7655
T:Polska fr Bj\"orkede
C:e. Kristian Oskarsson
R:Polska
O:Sweden
A:J\"amtland
B:L\aa{t}ar e. Kristian Oskarsson i Bj\"orkede (Christina Eketorp)
M:3/4
K:D
A|\
d>c A>A A>A| (3ABc d2 d2| c>A A>G (3EFE| (3DED C>D (3EDC| D2 [E3A3] A|\
d>c A>A A>A| (3ABc d2 d2| c>A A>G (3EFE| (3DED C>D (3EDC|1 D3 z2 :|2 D4 z2|:\
(3ABc d>a f>d| d>c e>c A2| (3ABc d>a f>d| d>c e>c A2| \
(3ABc d>f (3afa| b>a a>f e>f| (3geg f>e d>f| (3geg (3fed (3cBc\
|1 d2 d3 A :|2 d2 d3|]
